packages/icon/src/svg/account.icon.svg

<svg viewBox="0 0 24 24" xmlns="http://www.w3.org/2000/svg"><path d="M20 2c1.103 0 2 .898 2 2v16c0 1.103-.897 2-2 2H4c-1.103 0-2-.897-2-2V4c0-1.102.897-2 2-2h16zm-4 18h4.001L20 4h-4v3h-2V4h-4v8H8V4H4v16h4v-3h2v3h4v-8h2v8zM6 13h6v3H6v-3zm6-5h6v3h-6V8z" /></svg>

<?xml version="1.0" encoding="UTF-8"?>
<svg width="24px" height="24px" viewBox="0 0 24 24" version="1.1" xmlns="http://www.w3.org/2000/svg" xmlns:xlink="http://www.w3.org/1999/xlink">
    <!-- Generator: Sketch 46.1 (44463) - http://www.bohemiancoding.com/sketch -->
    <title>Icon/account.icon</title>
    <desc>Created with Sketch.</desc>
    <defs>
        <path d="M20,2 C21.103,2 22,2.898 22,4 L22,20 C22,21.103 21.103,22 20,22 L4,22 C2.897,22 2,21.103 2,20 L2,4 C2,2.898 2.897,2 4,2 L20,2 Z M16,20 L20.001,20 L20,4 L16,4 L16,7 L14,7 L14,4 L10,4 L10,12 L8,12 L8,4 L4,4 L4,20 L8,20 L8,17 L10,17 L10,20 L14,20 L14,12 L16,12 L16,20 Z M6,13 L12,13 L12,16 L6,16 L6,13 Z M12,8 L18,8 L18,11 L12,11 L12,8 Z" id="path-1"></path>
    </defs>
    <g id="Symbols" stroke="none" stroke-width="1" fill="none" fill-rule="evenodd">
        <g id="Icon/account">
            <mask id="mask-2" fill="white">
                <use xlink:href="#path-1"></use>
            </mask>
            <use id="Shape" fill="#000000" fill-rule="nonzero" xlink:href="#path-1"></use>
            <g id="Color/Neutral/White" mask="url(#mask-2)" fill="#FFFFFF">
                <rect id="222222-Fill" x="0" y="0" width="24" height="24"></rect>
            </g>
        </g>
    </g>
</svg>
